X:1
T:P2_No.4
T:Book1_P2_No.4 
L:1/8
M:4/4
K:C
V:1 bass nm="大提琴" snm="Vc."
V:1
 z8 |[Q:1/4=80] C2 G,2 B,2 G,2 | C2 G,2 B,2 G,2 | C2 G,2 A,2 F,2 | E,2 G,2 D,2 G,2 | %5
 C2 G,2 B,2 G,2 | C2 G,2 B,2 G,2 | C2 G,2 A,2 F,2 | E,4 D,4 | B,2 G,2 D2 F,2 | E,2 G,2 C2 G,2 | %11
 B,2 G,2 D2 F,2 | E,2 G,2 C2 G,2 | A,2 F,2 C2 A,2 | G,2 E,2 C2 G,2 | A,2 F,2 D2 B,2 | D4 C4 |] %17

